svg/regular/bx-list-ul.svg

<svg xmlns="http://www.w3.org/2000/svg" width="24" height="24" viewBox="0 0 24 24"><path d="M4 6H6V8H4zM4 11H6V13H4zM4 16H6V18H4zM20 8L20 6 18.8 6 9.2 6 8.023 6 8.023 8 9.2 8 18.8 8zM8 11H20V13H8zM8 16H20V18H8z"/></svg>

<svg xmlns="http://www.w3.org/2000/svg" width="24" height="24"><path d="M4 6h2v2H4zm0 5h2v2H4zm0 5h2v2H4zm16-8V6H8.023v2H18.8zM8 11h12v2H8zm0 5h12v2H8z"/></svg>
